assets/img/whatsappLogo.svg

<svg width="51" height="53" viewBox="0 0 51 53" fill="none" xmlns="http://www.w3.org/2000/svg">
<g clip-path="url(#clip0_1037_2262)">
<path d="M38.2039 32.0411C37.4752 30.5193 33.7388 27.5541 32.0643 27.562C31.3357 27.562 29.7543 28.2052 29.2349 28.7386C28.9868 28.9818 28.9248 29.4054 28.7775 29.5466C28.6845 29.6486 28.1574 29.8447 28.0256 29.7976C27.9015 29.7427 27.0798 29.1308 26.9015 28.9975C25.2969 27.7738 23.1806 25.444 22.1729 23.6869C22.0333 23.4437 21.669 22.8475 21.7077 22.62C21.8085 21.9611 22.4287 22.0474 22.8085 21.7101C23.4442 21.161 24.1884 19.5764 24.2116 18.7371C24.2581 17.0506 21.5062 12.8617 19.9558 12.1557C18.7388 11.5909 16.9713 11.9439 15.886 12.6813C14.8783 13.3637 13.545 17.482 13.4519 18.7371C13.0101 24.6125 19.886 32.2607 24.3201 35.4769C28.2581 38.3244 31.2659 39.2029 35.917 37.2497C36.7543 36.8967 37.2581 36.7712 37.7543 35.9554C38.4752 34.7552 38.8318 33.3589 38.2039 32.0411ZM35.8938 34.9043C35.8163 34.9827 34.4209 35.5318 34.1961 35.6024C33.1884 35.9475 31.9093 36.2378 30.8473 36.1515C26.2194 35.8142 19.7775 28.7621 17.4907 24.9184C15.7465 21.9847 14.9481 19.6784 16.2736 16.3211C16.4209 15.9367 16.9636 14.7208 17.2194 14.4776C17.7077 14.0148 18.7465 13.8893 19.3046 14.3051C20.1496 14.9326 21.7232 17.3957 21.9946 18.4233C22.1031 18.8156 21.9713 19.1136 21.793 19.4509C21.4442 20.1334 20.9946 20.0942 20.5217 20.5335C20.0488 20.9649 19.5372 22.016 19.545 22.6593C19.5915 24.7145 23.2659 28.7386 24.8163 30.0565C26.6845 31.6567 28.4752 32.9745 30.5372 30.7624C30.8008 30.4722 30.7232 30.2839 31.2039 30.0251C32.1729 29.5074 32.5527 29.9074 33.3977 30.4173C34.2116 30.9115 36.4752 32.5039 36.4132 33.5472C36.4054 33.7511 36.0256 34.7866 35.8938 34.9043Z" fill="#F9F9F9"/>
<path d="M24.2728 0.108287C10.7379 0.931941 0.458848 13.3103 1.4821 26.8966C1.79993 31.1561 3.26505 35.2587 5.53637 38.82C3.96272 42.8991 2.14877 46.9154 0.691406 51.0336C0.70691 51.8494 1.41234 52.2495 2.14877 51.9749L13.2418 46.3427C13.4976 46.327 15.0712 47.2997 15.4744 47.4958C30.234 54.6263 47.8464 45.2445 50.3736 28.9832C52.8697 12.9416 40.203 -0.856564 24.2728 0.108287ZM15.6139 45.2445C15.1023 44.9778 13.7922 44.0365 13.3271 44.0522C13.1178 44.06 12.9085 44.162 12.7302 44.2483L3.73792 48.798L7.64489 39.1024C7.69916 38.9612 7.73792 38.8122 7.73017 38.6553C7.73017 38.1768 6.54412 36.5295 6.23404 35.9568C-0.97526 22.598 6.57513 5.90524 21.172 2.67338C33.0635 0.0376883 45.0325 7.43488 47.9472 19.3739C52.6139 38.5219 32.9937 54.2263 15.6139 45.2445Z" fill="#F9F9F9"/>
<path d="M38.2039 32.0411C37.4752 30.5193 33.7388 27.5541 32.0643 27.562C31.3357 27.562 29.7543 28.2052 29.2349 28.7386C28.9868 28.9818 28.9248 29.4054 28.7775 29.5466C28.6845 29.6486 28.1574 29.8447 28.0256 29.7976C27.9015 29.7427 27.0798 29.1308 26.9015 28.9975C25.2969 27.7738 23.1806 25.444 22.1729 23.6869C22.0333 23.4437 21.669 22.8475 21.7077 22.62C21.8085 21.9611 22.4287 22.0474 22.8085 21.7101C23.4442 21.161 24.1884 19.5764 24.2116 18.7371C24.2581 17.0506 21.5062 12.8617 19.9558 12.1557C18.7388 11.5909 16.9713 11.9439 15.886 12.6813C14.8783 13.3637 13.545 17.482 13.4519 18.7371C13.0101 24.6125 19.886 32.2607 24.3201 35.4769C28.2581 38.3244 31.2659 39.2029 35.917 37.2497C36.7543 36.8967 37.2581 36.7712 37.7543 35.9554C38.4752 34.7552 38.8318 33.3589 38.2039 32.0411ZM35.8938 34.9043C35.8163 34.9827 34.4209 35.5318 34.1961 35.6024C33.1884 35.9475 31.9093 36.2378 30.8473 36.1515C26.2194 35.8142 19.7775 28.7621 17.4907 24.9184C15.7465 21.9847 14.9481 19.6784 16.2736 16.3211C16.4209 15.9367 16.9636 14.7208 17.2194 14.4776C17.7077 14.0148 18.7465 13.8893 19.3046 14.3051C20.1496 14.9326 21.7232 17.3957 21.9946 18.4233C22.1031 18.8156 21.9713 19.1136 21.793 19.4509C21.4442 20.1334 20.9946 20.0942 20.5217 20.5335C20.0488 20.9649 19.5372 22.016 19.545 22.6593C19.5915 24.7145 23.2659 28.7386 24.8163 30.0565C26.6845 31.6567 28.4752 32.9745 30.5372 30.7624C30.8008 30.4722 30.7232 30.2839 31.2039 30.0251C32.1729 29.5074 32.5527 29.9074 33.3977 30.4173C34.2116 30.9115 36.4752 32.5039 36.4132 33.5472C36.4054 33.7511 36.0256 34.7866 35.8938 34.9043Z" fill="#F0F0F0"/>
<path d="M38.2039 32.0411C37.4752 30.5193 33.7388 27.5541 32.0643 27.562C31.3356 27.562 29.7543 28.2052 29.2349 28.7386C28.9868 28.9818 28.9248 29.4054 28.7775 29.5466C28.6845 29.6486 28.1574 29.8447 28.0256 29.7976C27.9015 29.7427 27.0798 29.1308 26.9015 28.9975C25.2969 27.7738 23.1806 25.444 22.1729 23.6869C22.0333 23.4437 21.669 22.8475 21.7077 22.62C21.8085 21.9611 22.4287 22.0474 22.8085 21.7101C23.4442 21.161 24.1884 19.5764 24.2116 18.7371C24.2581 17.0506 21.5062 12.8617 19.9558 12.1557C18.7388 11.5909 16.9713 11.9439 15.886 12.6813C14.8783 13.3637 13.545 17.482 13.4519 18.7371C13.0101 24.6125 19.886 32.2607 24.3201 35.4769C28.2581 38.3244 31.2659 39.2029 35.917 37.2497C36.7543 36.8967 37.2581 36.7712 37.7543 35.9554C38.4752 34.7552 38.8318 33.3589 38.2039 32.0411ZM35.8938 34.9042C35.8163 34.9827 34.4209 35.5318 34.1961 35.6024C33.1884 35.9475 31.9093 36.2378 30.8473 36.1515C26.2194 35.8142 19.7775 28.7621 17.4907 24.9184C15.7465 21.9847 14.9481 19.6784 16.2736 16.3211C16.4209 15.9367 16.9636 14.7208 17.2194 14.4776C17.7077 14.0148 18.7465 13.8893 19.3046 14.3051C20.1496 14.9326 21.7232 17.3957 21.9946 18.4233C22.1031 18.8156 21.9713 19.1136 21.793 19.4509C21.4442 20.1334 20.9946 20.0942 20.5217 20.5335C20.0488 20.9649 19.5372 22.016 19.545 22.6593C19.5915 24.7145 23.2659 28.7386 24.8163 30.0565C26.6845 31.6567 28.4752 32.9745 30.5372 30.7624C30.8008 30.4722 30.7232 30.2839 31.2039 30.0251C32.1729 29.5074 32.5527 29.9074 33.3977 30.4173C34.2116 30.9115 36.4752 32.5039 36.4132 33.5472C36.4054 33.7511 36.0256 34.7866 35.8938 34.9042Z" fill="#F9F9F9"/>
</g>
<defs>
<clipPath id="clip0_1037_2262">
<rect width="50" height="52" fill="white" transform="translate(0.691406 0.0605469)"/>
</clipPath>
</defs>
</svg>

<svg xmlns="http://www.w3.org/2000/svg" width="51" height="53" fill="none"><g clip-path="url(#a)"><path fill="#F9F9F9" d="M38.204 32.041c-.729-1.522-4.465-4.487-6.14-4.479-.728 0-2.31.643-2.83 1.177-.247.243-.31.666-.457.808-.093.102-.62.298-.751.25-.125-.054-.946-.666-1.125-.8-1.604-1.223-3.72-3.553-4.728-5.31-.14-.243-.504-.84-.465-1.067.1-.659.72-.573 1.1-.91.636-.549 1.38-2.134 1.404-2.973.046-1.686-2.706-5.875-4.256-6.581-1.217-.565-2.985-.212-4.07.525-1.008.683-2.341 4.801-2.434 6.056-.442 5.876 6.434 13.524 10.868 16.74 3.938 2.847 6.946 3.726 11.597 1.773.837-.353 1.341-.479 1.837-1.295.721-1.2 1.078-2.596.45-3.914m-2.31 2.863c-.078.079-1.473.628-1.698.698-1.008.346-2.287.636-3.349.55-4.628-.338-11.07-7.39-13.356-11.234-1.745-2.933-2.543-5.24-1.217-8.597.147-.384.69-1.6.945-1.843.489-.463 1.527-.589 2.086-.173.845.628 2.418 3.09 2.69 4.118.108.393-.024.69-.202 1.028-.349.682-.798.643-1.271 1.082-.473.432-.985 1.483-.977 2.126.046 2.056 3.72 6.08 5.271 7.398 1.869 1.6 3.66 2.918 5.721.705.264-.29.186-.478.667-.737.969-.518 1.349-.118 2.194.392.814.494 3.077 2.087 3.015 3.13-.008.204-.387 1.24-.52 1.357"/><path fill="#F9F9F9" d="M24.273.108C10.738.932.459 13.31 1.483 26.897c.317 4.26 1.782 8.362 4.053 11.923C3.963 42.9 2.15 46.915.691 51.034c.016.815.721 1.215 1.458.94l11.093-5.631c.256-.016 1.83.957 2.232 1.153 14.76 7.13 32.372-2.251 34.9-18.513C52.87 12.942 40.203-.857 24.273.108m-8.66 45.137c-.51-.267-1.82-1.209-2.286-1.193-.21.008-.418.11-.597.196l-8.992 4.55 3.907-9.696c.054-.14.093-.29.085-.447 0-.478-1.186-2.126-1.496-2.698-7.21-13.359.341-30.052 14.938-33.284 11.891-2.635 23.86 4.762 26.775 16.7 4.667 19.149-14.953 34.853-32.333 25.872"/><path fill="#F0F0F0" d="M38.204 32.041c-.729-1.522-4.465-4.487-6.14-4.479-.728 0-2.31.643-2.83 1.177-.247.243-.31.666-.457.808-.093.102-.62.298-.751.25-.125-.054-.946-.666-1.125-.8-1.604-1.223-3.72-3.553-4.728-5.31-.14-.243-.504-.84-.465-1.067.1-.659.72-.573 1.1-.91.636-.549 1.38-2.134 1.404-2.973.046-1.686-2.706-5.875-4.256-6.581-1.217-.565-2.985-.212-4.07.525-1.008.683-2.341 4.801-2.434 6.056-.442 5.876 6.434 13.524 10.868 16.74 3.938 2.847 6.946 3.726 11.597 1.773.837-.353 1.341-.479 1.837-1.295.721-1.2 1.078-2.596.45-3.914m-2.31 2.863c-.078.079-1.473.628-1.698.698-1.008.346-2.287.636-3.349.55-4.628-.338-11.07-7.39-13.356-11.234-1.745-2.933-2.543-5.24-1.217-8.597.147-.384.69-1.6.945-1.843.489-.463 1.527-.589 2.086-.173.845.628 2.418 3.09 2.69 4.118.108.393-.024.69-.202 1.028-.349.682-.798.643-1.271 1.082-.473.432-.985 1.483-.977 2.126.046 2.056 3.72 6.08 5.271 7.398 1.869 1.6 3.66 2.918 5.721.705.264-.29.186-.478.667-.737.969-.518 1.349-.118 2.194.392.814.494 3.077 2.087 3.015 3.13-.008.204-.387 1.24-.52 1.357"/><path fill="#F9F9F9" d="M38.204 32.041c-.729-1.522-4.465-4.487-6.14-4.479-.728 0-2.31.643-2.83 1.177-.247.243-.31.666-.457.808-.093.102-.62.298-.751.25-.125-.054-.946-.666-1.125-.8-1.604-1.223-3.72-3.553-4.728-5.31-.14-.243-.504-.84-.465-1.067.1-.659.72-.573 1.1-.91.636-.549 1.38-2.134 1.404-2.973.046-1.686-2.706-5.875-4.256-6.581-1.217-.565-2.985-.212-4.07.525-1.008.683-2.341 4.801-2.434 6.056-.442 5.876 6.434 13.524 10.868 16.74 3.938 2.847 6.946 3.726 11.597 1.773.837-.353 1.341-.479 1.837-1.295.721-1.2 1.078-2.596.45-3.914m-2.31 2.863c-.078.079-1.473.628-1.698.698-1.008.346-2.287.636-3.349.55-4.628-.338-11.07-7.39-13.356-11.234-1.745-2.933-2.543-5.24-1.217-8.597.147-.384.69-1.6.945-1.843.489-.463 1.527-.589 2.086-.173.845.628 2.418 3.09 2.69 4.118.108.393-.024.69-.202 1.028-.349.682-.798.643-1.271 1.082-.473.432-.985 1.483-.977 2.126.046 2.056 3.72 6.08 5.271 7.398 1.869 1.6 3.66 2.918 5.721.705.264-.29.186-.478.667-.737.969-.518 1.349-.118 2.194.392.814.494 3.077 2.087 3.015 3.13-.008.204-.387 1.24-.52 1.357"/></g><defs><clipPath id="a"><path fill="#fff" d="M.691.06h50v52h-50z"/></clipPath></defs></svg>
